X: 1192
T: Kalbimdeki Âmâl-i Perîşânımı
C: Muallim İsmail Hakkı Bey
O: Turkey
F: http://compmusic.upf.edu/node/140
N: mahur--sarki--evfer--kalbimdeki_amal-i--muallim_ismail_hakki_bey
N: makam= mahur
N: form= sarki
N: usul= evfer = 9/8
M: 9/8
L: 1/16
K: C ^9/8f   
Q: 1/4=120
%%MIDI tuningsystem comma53
g4 d4 fgaf g4 gf | f3eag g^ff3ed4cB  | \
w:  Kal bim de *  ki  *  â  |  mâl_ *  i  *  pe *  rî  | 
g4 g2gf f3e d_1/4e^f2 ed | 
w:  şâ nı mı  *  din  | 
d4z2 a_bag fag4z2  | g4 f3e f2g2 agfe .d2 | \
w:  le   SAZ  |  Ey  hâl_ *  i  ke man   | 
d3cd2 e2d2 cedc B^AB2  | 
w:  gir *  ye  i  hic  | 
d4 d2d2 ^c4 d2_7/8e2 ed | d6 d_7/8ed^c _7/8Bcd4z2  | \
w:  rân  i le  in  |  le   SAZ  | 
d4 e3d dccB c6 | 
w:  Ey  hâl_ *  i  *  ke *  man   | 
c3/2B/ ced2 c2_1/4B3/2A/ BcA4z2  | \
w:  gir *  *  *  ye  i hic  | 
c_1/4BAG FED2 G4 =B4 AG | 
w:  rân  *  *  *  i *  le  in  | 
G4z2 dccB B^AB4z2  | B4 B3G A2B2 c4 cB | \
w:  le   SAZ  |  Ru hum *  da  ne hir  | 
dc ded2 c2Bc BAG4z2  | 
w:  ler  *  *  *  co şu yor   | 
g4 g2gf f3e d_1/4e^f2 ed | d4z2 a_bag fag4z2  | 
w:  nağ me le *  rin  |  le   SAZ  | 
g4 f3e f2g2 agfe d2 | d3cd2 e2d2 cedc B^AB2  | 
w:  Ey  hâl_ *  i  ke man   |  gir *  ye  i  hic  | 
d4 d2d2 ^c4 d2_7/8e2 ed | d4z2 d_7/8ed^c _7/8Bcd4z2  | \
w:  rân  i le  in  |  le   SAZ  | 
d4 e2d2 dccB c6 | 
w:  Ey  hâl_ *  i  *  ke *  man   | 
c3/2B/ ced2 c2_1/4B3/2A/ BcA4z2  | \
w:  gir *  *  *  ye  i  hic  | 
c_1/4BAG FED2 G4 =B4 AG | 
w:  rân  *  *  *  i *  le  in  | 
G4z2 dedc BAG4z2  | gfge d4 edec B2^c2 d2 | 
w:  le   SAZ  |  ARANAĞME  | 
^cd efag =fee2 dcde ^9/8fga2  | gfge d4 edec B2d2 d2 | 
w:   |   | 
de dcBA Bcd3/2B/ cAG4z2  | gfge d4 edec B2^c2 d2 | 
w:   |  ARANAĞME  | 
^cd efag =fee2 dcde ^9/8fga2  | gfge d4 edec B2d2 d2 | 
w:   |   | 
de dcBA Bcd3/2B/ cAG4z2  | |


